X:21
T:21.  Jack in the Pulpit (aeae tuning)
C:c 2006 Harry Bolick  
R:Breakdown
O:United States
A:Brooklyn, New York
M:4/4
L:1/8
Q:250
K:A
|: "A"  cdcA "E"BcBA |"A" ABAF E2 FG |A2A2ABcd |"E" e2"A"c4 AB |
 cdcA"E" BcBA | "A"ABAF E2 FG |A2AA "E"BcB G| "A"A8 :|
|:CA,CE A4|cdcB c4|e2c2 (3BcB A2|"E"B8|
"A" cdcA "E"BcBA|"A" ABAF E2 FG| AAAA "E"BA G2| "A"A8 :|
